!!!OTL: Cup&szlig;n uí eaghra, S. 183
!!!id: I0561
**kern
*clefG2
*k[f#c#]
*D:
{8.f#
16e
=1
4d
4f#
4a
=2
8b
8a
8g
8f#
8e
8d
=3
4d
4dd
8dd
8ee
=4
2dd}
=5
{8dd
8b
=6
4a
4b
4dd
=7
4ee
4dd
8ee
8ff#
=8
8ff#
8ee
8dd
8cc#
8b
8a
=9
2b}
{16d
8a
8b
8cc#
16d
=10
4dd
4cc#
8dd
8cc#
=11
4.b
8cc#
8dd
8b
=12
8a
8f#
8d
8f#
8a
8f#
=13
2e}
{8f#
8a
=14
8b
8cc#
8dd
8b
8a
8f#
=15
8b
8a
8g
8f#
8e
8d
=16
4e
4d
8.d
16e
=17
2d}
=18
{16d
8a
8b
8cc#
16d
=19
8dd
8ff#
8ee
8dd
8cc#
8b
=20
8cc#
8ee
8dd
8cc#
8b
8a
=21
8b
8cc#
8dd
8b
8a
8f#
=22
2e
=23
16aaaa
16dddd}
{8f#
8a
=24
8b
8cc#
8dd
8b
8a
8f#
=25
8b
8a
8g
8f#
8e
8d
=26
4e
4d
8.d
16e
=27
2d}
==
*-
!!!minrhy: 16
!!!meters: 3/4 ]  ZZ[6
!!!cut: Cup&szlig;n uí eaghra, S. 183
!!!reg: Irland
!!!trd: O'SULLIVAN, Donal: Song of the Irish
!!!rhy1: X_.X  X__X__X__  X_X_X_X_X_X_  X__X__X_X_  X___
!!!rhy2: X_X_  X__X__X__  X__X__X_X_  X_X_X_X_X_X_  X___
!!!key: I0561  16  D 3/4 ]  ZZ[6
!!!mod: HEPTATONIK IONISCH]  AMBITUS[10
!!!kad: +162121
!!!akz: 161+1_5+2+36_+1652_6621_+1762_6621_
!!!fot: 'a__b__c__d__e__d__
!!!for: 'a__b__c__d__e__d__
!!!fok: 'Wa_Sd_$d_^d_$d_^d_
!! PHRAS[AUFTAKTIG]
!!!fkt: "Songs of the Harpers", Weinlied, erz&auml;hlend
!!!bem: Melismen
!!!RNB: symbol: &szlig; = sz ligature (UTF-8: ÃŸ)
!!!RNB: symbol: &auml;      = a umlaut  (UTF-8: Å„)
